X:1
T:De Mey komt
T:De Mey komt
T:Anonymous
C:Anonymous
%%score [ 1 2 3 4 ]
L:1/8
Q:1/4=120
M:2/2
K:F
V:1 treble nm="Soprano" snm="S"
V:2 treble nm="Alto" snm="A"
V:3 treble-8 nm="Tenor" snm="T"
V:4 bass nm="Bass" snm="B"
V:1
 z8 | z8 | z8 | z2 c2 c2 c2 | d2 c2 d2 e2 | f4 e2 d2- | d2 ^c=B c2 c2 | d8 | z8 | z2 f2 e4 | %10
w: |||De Mey komt|ons _ _ _|_ seer lief-|* * * * lijk|aen,||de baen|
w: |||Van min- naers|die _ _ _|_ hier buy-|* * * * ten|gaen,||voor- taen|
 d4 c4 | B4 A2 G2 | d2 e2 f2 e2 | d2 c2 c4- | c2 =BA B4 | c8 :: z8 | z4 z2 A2 | A4 A2 A2 | c6 c2 | %20
w: wort nu|be- tre- den,|hier ter ste- *|||de.||Met|har- pen en|lui- ten,|
w: volcht haer|lief me- de,|meest in vre- *|||de.|||||
 B6 AG | A8 | z4 z2 A2 | A4 A2 A2 | c6 c2 | B6 AG | A8 | z8 | z8 | z2 e2 f4 | e2 e2 d4 | ^c4 d4- | %32
w: soet ge- *|klang,|vi-|o- len en|flui- ten,|en ge- *|zang,|||hier buy-|ten in dees|con- trey-|
w: ||||||||||||
 d2 ^c=B c4 | d8 | z8 | z4 z2 f2 | e4 d4 | c4 B4 | A2 G2 d2 e2 | f2 e2 d2 c2- | c2 =BA B4 | c8 :| %42
w: |:||in|de- se|koe- le|Mey- e, koe- le|Mey- * * *||e.|
w: ||||||||||
V:2
 z8 | F4 F2 G2 | A2 G2 A2 =B2 | c3 B A2 A2 | B4 B4 | c4 B4 | A6 A2 | F8 | z4 z2 B2 | A4 G4 | %10
w: |De Mey komt|ons, _ _ _|_ _ _ de|Mey komt|ons seer|lie- lijk|aen,|de|baen wort|
w: |Van min- naers|die _ _ hier|buy- ten gaen, van|min- naers|die hier|buy- ten|gaen,|voor-|taen volcht|
 F6 C2 | G4 c2 BA | GE cB A2 G2 | A3 G F2 EF | G8 | G8 :: z2 D2 D4 | D2 D2 F4 | C4 F4 | G4 A4 | %20
w: nu be-|tre- den, hier- *|* * * * * ter|ste- * * * *||de.|Met har-|pen en lui-|ten, en|lui- ten|
w: haer lief|me- de, meest _|_ _ _ _ _ in|vre- * * * *||de.|||||
 G6 G2 | ^F2 D2 D4 | D2 D2 F4 | C4 F4 | G4 A4 | G6 G2 | ^F8 | z4 z2 A2 | B4 A2 A2 | G4 B2 A2 | %30
w: soet ge-|klang, vi- o-|len en flui-|te,, en|flui- ten,|en ge-|zang,|hier|buy- ten, hier|buy- ten, hier|
w: ||||||||||
 c4 F2 G2 | A4 A4 | B4 A2 G2 | ^F4 z4 | z4 z2 F2 | E4 D4 | C4 D3 E | F2 E2 G2 G2 | C2 c2 =B2 c2 | %39
w: buy- ten in|dees con-|trey- * *|je:|in|de- se|koe- le, in|de- se koe- le|Mey- e, koe- le|
w: |||||||||
 A2 G2 F2 EF | D2 EF G4 | E8 :| %42
w: Mey- * * * *||e.|
w: |||
V:3
 c4 c2 c2 | d2 c2 d2 e2 | f8- | f4 f4 | f4 g4 | a4 g3 f | e6 e2 | d8 | f2 e4 d2- | d2 c4 B2 | %10
w: De Mey komt|ons, _ _ _|_|* de|Mey komt|ons seer _|lief- lijk|aen|de baen wort|_ nu be-|
w: Van min- naers|die _ _ _|_|* hier|buy- ten|gaen, die hier|buy- ten|gaen,|voor- taen volcht|_ haer lief|
 A6 G2 | d2 e2 fedc | d2 c3 dec | f3 e d2 c2 | d8 | e8 :: z8 | z2 A2 A4 | A2 A2 c4- | c2 c2 A4 | %20
w: tre- den,|hier ter ste- * * *||||de.||Met har-|pen en lui-|* te, en|
w: me- de,|meest in vre- * * *||||de.|||||
 d2 d2 c2 B2 | de^fg f4 | z2 A2 A4 | A2 A2 c4- | c2 c2 A4 | d2 d2 c2 B2 | d8 | z8 | z2 e2 f4 | %29
w: lui- ten soet ge-|klang, _ _ _ _|vi- o-|len en flui-|* ten, en|flui- ten en ge-|zang,||hier buy-|
w: |||||||||
 e2 e2 d2 cd | c4 d4 | e4 f4 | e8 | d2 B2 A4 | G4 F4 | G3 A B2 A2 | G3 A =B2 B2 | c4 d2 e2 | %38
w: ten, in dees _ _|_ con-|trey- *||je: in de-|se koe-|le, in de- se|koe- le Mey- e,|in de- se|
w: |||||||||
 f2 c2 f2 g2 | f2 c2 AB cA | =B2 c2 d4 | c8 :| %42
w: koe- le Mey- e,|koe- le Mey- * * *||e.|
w: ||||
V:4
 z8 | z8 | F,4 F,2 G,2 | A,3 G, A,2 F,2 | B,2 A,2 G,2 G,2 | F,4 G,4 | A,6 A,2 | D,4 z2 B,2 | %8
w: ||De Mey komt|ons, de Mey komt|ons, de Mey komt|ons seer|lief- lijk|aen, de|
w: ||Van min- naers|de hier buy- ten|gaen, van min- naers|die hier|buy- ten|gaen, voor-|
 A,4 G,4 | F,4 C,4 | D,3 E, F,2 E,F, | G,4 F,2 G,A, | B,2 A,G, A,2 C2 | F,3 G, A,4 | G,8 | C,8 :: %16
w: baen wort|nu be-|tre- * * * *|* den, hier _|_ _ _ _ ter|ste- * *||de.|
w: taen volcht|haer lief|me- * * * *|* de, mest _|_ _ _ _ in|vre- * *||de.|
 z4 z2 D,2 | D,4 D,2 D,2 | F,6 F,2 | E,4 F,4 | G,4 _E,4 | D,6 D,2 | D,4 D,2 D,2 | F,6 F,2 | %24
w: Mt|har- pen en|lui- ten,|lui- ten|soet ge-|klang, vi-|o- len en|flui- te,|
w: ||||||||
 E,4 F,4 | G,4 _E,4 | D,6 A,2 | B,4 A,2 A,2 | G,4 F,2 A,2 | C4 B,2 F,2 | A,4 B,4 | A,4 F,4 | %32
w: flui- ten|en ge-|zang, hier|buy- ten, hier|buy- ten, hier|buy- ten in|dees con-|trey- *|
w: ||||||||
 G,4 A,4 | D,4 z2 F,2 | E,4 D,4 | C,4 B,,4 | C,4 G,4 | A,4 G,4 | F,2 E,2 D,2 C,2 | %39
w: |je: in|de- se|koe- le|Mey- e,|koe- le|Mey- * * *|
w: |||||||
 D,2 E,2 F,G,A,F, | G,8 | C,8 :| %42
w: ||e.|
w: |||

